X:711
T:Reel 711
M:4/4
K:Emin
L:1/8
 (3GGG |EDB,D EDB,A,|B,EE^D EFGA||B^c (3dcd AGFD|B,CB,G, A,2G,A,:||2EDEF GABA|GAFD E2z2|Beef edBd|edce d2Bc|Beed edef|gfed B2cd|edef edcd|BAGF EFGA|Beed Bcdf|edBA B2cd|
